X: 4648
T: Boxing, The
R: reel
M: 4/4
K: Aminor
|:E2 Ac B2 AG|EAcB AGEC|A,EAc B2 AG|E^F G/G/G GEDG|
EAAc BAGA|EA A/A/G ABcd|e/e/c dB cBAG|1 EAcB AGED:|2 EAcA Bcde||
|:f2 df edcB|Ad d/d/c dcde|f2 df edcB|AB B/B/A Bcde|
f2 df edcB|Ad d/d/c deba|aged dcAG|1 EAAG Acde:|2 EAAG AGEG||
|:Aa A/A/A e'Ad'c'|Aa A/A/A bAbc'|Aa A/A/A e'Ad'c'|Ag A/A/A bAbc'|
Af A/A/A e'Ad'c'|Ae A/A/A c'Ac'a|aged dcAG|EAcB AGEG:|

